hosted/assets/icon/widgets/dark-mode/folium.svg

<svg width="50" height="50" viewBox="0 0 50 50" fill="none" xmlns="http://www.w3.org/2000/svg">
<path fill-rule="evenodd" clip-rule="evenodd" d="M44.5264 17.4259C43.9229 16.982 42.9689 16.823 42.2266 16.8535C42.2149 16.854 42.2033 16.8543 42.1916 16.8543H30.8443C28.3452 17.6698 27.5216 19.3604 26.617 21.2175C26.4985 21.4607 26.3787 21.7067 26.2535 21.954C25.7986 22.8526 25.8097 23.358 25.8995 23.6979C25.9835 24.016 26.1355 24.2525 26.3611 24.6038C26.4438 24.7324 26.5363 24.8764 26.639 25.0455C26.7334 25.2008 26.9472 25.4429 27.3027 25.7908C27.5021 25.9859 27.709 26.1796 27.9311 26.3875C28.1045 26.5499 28.2872 26.721 28.4829 26.9083C28.9069 27.314 29.3517 27.7588 29.7348 28.2178C30.1127 28.6706 30.4675 29.1801 30.6726 29.7202C31.3049 31.3857 32.1079 33.3524 32.8782 34.4937C33.0914 34.8095 33.6664 35.15 34.5217 35.15C35.3386 35.15 36.3249 34.8279 37.2115 33.9522C37.6656 33.5037 38.2903 32.6785 39.0118 31.576C39.724 30.4876 40.5018 29.1739 41.2636 27.7839C42.7924 24.9941 44.2267 21.9517 44.9342 19.8553C45.1888 19.1012 45.185 18.5817 45.0917 18.2307C45.001 17.8897 44.8059 17.6316 44.5264 17.4259ZM46.7345 17.7937C46.936 18.5512 46.8749 19.4215 46.545 20.3989C45.7915 22.6315 44.304 25.7733 42.7544 28.6009C41.977 30.0195 41.1764 31.3728 40.4342 32.5069C39.7013 33.6268 38.9955 34.5795 38.4061 35.1617C37.2056 36.3475 35.7918 36.85 34.5217 36.85C33.2898 36.85 32.0909 36.3659 31.4692 35.4448C30.5699 34.1125 29.7032 31.9563 29.0833 30.3236C28.9753 30.0391 28.7562 29.6983 28.4297 29.3071C28.1084 28.9223 27.7184 28.5296 27.3076 28.1365C27.1444 27.9804 26.9694 27.8163 26.7954 27.6532C26.5549 27.4277 26.3163 27.2041 26.1137 27.0058C25.7648 26.6644 25.4048 26.2881 25.1861 25.9281C25.1388 25.8503 25.0824 25.7634 25.0205 25.6682C24.7641 25.2733 24.4156 24.7368 24.2559 24.132C24.0326 23.2866 24.1481 22.349 24.7367 21.1862C24.8472 20.968 24.9575 20.7384 25.0716 20.501C25.981 18.6085 27.1282 16.2211 30.4621 15.1921C30.5433 15.167 30.6278 15.1543 30.7128 15.1543H42.1748C43.1022 15.1191 44.4952 15.2926 45.5337 16.0565C46.0785 16.4573 46.5304 17.0263 46.7345 17.7937Z" fill="white"/>
<path fill-rule="evenodd" clip-rule="evenodd" d="M17.6051 25.1519C18.5985 25.1188 19.5063 25.513 20.1707 25.992C20.7337 26.3981 22.0033 27.333 23.0539 28.3326C23.5741 28.8274 24.0822 29.3768 24.4184 29.9146C24.7121 30.3845 25.0815 31.178 24.6644 31.9298C24.5706 32.0991 24.4839 32.2527 24.4041 32.3941C23.8775 33.3274 23.6534 33.7248 23.6534 34.54C23.6534 35.1472 23.3567 35.6278 22.9406 35.9617C22.5498 36.2754 22.0454 36.4717 21.5252 36.5996C20.4785 36.8569 19.0919 36.9017 17.6026 36.7985C16.2227 36.7028 15.3114 36.1362 14.8446 35.2949C14.4339 34.5544 14.4507 33.7464 14.5831 33.1952C14.5829 33.1841 14.5822 33.1705 14.5807 33.154C14.5765 33.1076 14.567 33.0468 14.5496 32.9716C14.5146 32.8201 14.4533 32.6357 14.3659 32.4317C14.1896 32.0205 13.9322 31.5887 13.6547 31.2552C13.4096 30.9606 13.2285 30.6175 13.1699 30.213C13.1123 29.8152 13.1846 29.435 13.3152 29.0817C13.5605 28.4185 14.0882 27.6651 14.7425 26.7805C15.5543 25.6829 16.5698 25.1865 17.6051 25.1519ZM17.6619 26.851C17.1881 26.8668 16.6387 27.0756 16.1092 27.7915C15.4221 28.7204 15.0556 29.2768 14.9097 29.6714C14.8447 29.847 14.8471 29.9328 14.8524 29.9695C14.8567 29.9995 14.8712 30.0594 14.9614 30.1678C15.3546 30.6403 15.6943 31.216 15.9284 31.7619C16.146 32.2696 16.3372 32.8997 16.2691 33.4377C16.264 33.4784 16.2559 33.5187 16.2449 33.5582C16.1741 33.8136 16.1729 34.1848 16.3312 34.4702C16.4569 34.6968 16.7751 35.037 17.7202 35.1025C19.1373 35.2008 20.3216 35.1448 21.1194 34.9488C21.5213 34.85 21.7575 34.7315 21.8766 34.6359C21.9308 34.5924 21.9471 34.5646 21.9502 34.5586C21.9503 34.5584 21.9504 34.5582 21.9506 34.558C21.9518 34.5559 21.9534 34.5531 21.9534 34.54C21.9534 33.2526 22.4055 32.4613 22.9364 31.5321C23.0046 31.4126 23.0742 31.2909 23.1443 31.1655C23.1344 31.1208 23.0999 31.0126 22.9768 30.8157C22.7541 30.4594 22.368 30.0264 21.8821 29.5642C20.9207 28.6495 19.7311 27.771 19.1764 27.371C18.723 27.044 18.1775 26.8338 17.6619 26.851Z" fill="white"/>
<path fill-rule="evenodd" clip-rule="evenodd" d="M6.77823 20.98C5.82812 20.7993 4.77844 20.8335 4.11369 20.9233C3.64846 20.986 3.22043 20.6598 3.15764 20.1946C3.09485 19.7294 3.42109 19.3013 3.88632 19.2385C4.6818 19.1312 5.92202 19.0866 7.09589 19.3099C8.22255 19.5242 9.56987 20.0423 10.1487 21.3027C10.6425 22.3779 11.1093 23.4022 11.424 24.3107C11.7315 25.1983 11.9444 26.1093 11.8075 26.9226C11.7234 27.4219 11.4351 27.8888 11.1733 28.2566C10.9508 28.5692 10.6804 28.8987 10.4279 29.2063C10.3705 29.2762 10.314 29.345 10.2593 29.4123C9.94808 29.7942 9.67855 30.1402 9.48614 30.4611C9.28674 30.7936 9.23069 31.0023 9.23069 31.1171C9.23069 31.1936 9.24506 31.238 9.32832 31.3243C9.42137 31.4207 9.52195 31.4927 9.6816 31.607C9.75225 31.6576 9.83446 31.7165 9.93271 31.7894C10.2021 31.9894 10.5685 32.2855 10.8109 32.7404C11.0685 33.2237 11.1375 33.7876 11.006 34.4386C10.8041 35.4377 10.0929 36.5254 9.40322 37.4057C8.68906 38.3172 7.89039 39.1386 7.36447 39.6244C7.01964 39.9429 6.48187 39.9216 6.16334 39.5768C5.8448 39.2319 5.86612 38.6942 6.21096 38.3756C6.68065 37.9418 7.41523 37.1866 8.06506 36.3572C8.73932 35.4967 9.22294 34.6794 9.33964 34.1019C9.40721 33.7675 9.35176 33.617 9.31067 33.5399C9.2544 33.4343 9.14792 33.324 8.91946 33.1545C8.88403 33.1282 8.84081 33.0974 8.79224 33.0628C8.59744 32.924 8.31643 32.7238 8.10511 32.5049C7.79012 32.1785 7.53069 31.7303 7.53069 31.1171C7.53069 30.542 7.77334 30.0118 8.02818 29.5868C8.29001 29.1501 8.6303 28.7202 8.94138 28.3384C9.00601 28.2591 9.06918 28.1821 9.13072 28.107C9.38024 27.8028 9.60306 27.5311 9.78828 27.2709C10.0306 26.9304 10.1156 26.7322 10.1311 26.6403C10.1933 26.2711 10.1075 25.704 9.81765 24.8672C9.53502 24.0513 9.10572 23.1049 8.60388 22.0122C8.38625 21.5384 7.77553 21.1697 6.77823 20.98Z" fill="white"/>
<path fill-rule="evenodd" clip-rule="evenodd" d="M45 10.7H5C4.83431 10.7 4.7 10.8343 4.7 11V38C4.7 38.1657 4.83431 38.3 5 38.3H45C45.1657 38.3 45.3 38.1657 45.3 38V11C45.3 10.8343 45.1657 10.7 45 10.7ZM5 9C3.89543 9 3 9.89543 3 11V38C3 39.1046 3.89543 40 5 40H45C46.1046 40 47 39.1046 47 38V11C47 9.89543 46.1046 9 45 9H5Z" fill="white"/>
<path fill-rule="evenodd" clip-rule="evenodd" d="M27 9.15002C27.4695 9.15002 27.85 9.53058 27.85 10C27.85 10.9788 27.6305 11.8858 26.7798 12.4367C26.0546 12.9062 25.0276 12.9858 23.8814 12.9858C23.44 12.9858 23.0813 13.2585 22.79 13.9301C22.4999 14.5991 22.3924 15.4452 22.3924 16.0189C22.3924 18.3193 21.4119 20.2766 19.6037 20.7268C18.6488 20.9646 17.7339 20.8724 16.9892 20.316C16.2741 19.7818 15.8625 18.9265 15.645 17.9514C15.4589 17.1171 15.192 16.2997 14.8005 15.6634C14.4151 15.0371 13.9503 14.648 13.3672 14.5189C13.1779 14.477 13.0793 14.5119 12.9689 14.5898C12.808 14.7033 12.6383 14.9059 12.3899 15.2522C12.3569 15.2983 12.3222 15.3473 12.2859 15.3986C12.0815 15.6875 11.8266 16.0477 11.5315 16.3539C11.1667 16.7325 10.6851 17.0924 10.0312 17.2371C8.74308 17.5222 7.47532 17.2578 6.38516 16.8447C5.29444 16.4313 4.30381 15.838 3.55933 15.3866C3.15791 15.1432 3.0298 14.6205 3.27319 14.2191C3.51659 13.8177 4.03931 13.6896 4.44073 13.933C5.19059 14.3876 6.06003 14.9035 6.98762 15.255C7.91577 15.6068 8.82456 15.7631 9.66378 15.5773C9.88696 15.5279 10.0876 15.4024 10.3075 15.1742C10.5056 14.9687 10.6746 14.7308 10.8809 14.4404C10.9218 14.3829 10.9641 14.3233 11.0084 14.2615C11.2474 13.9283 11.5649 13.4999 11.9888 13.2008C12.4632 12.8661 13.0467 12.7068 13.7346 12.8591C14.9056 13.1183 15.7079 13.8942 16.2483 14.7726C16.7827 15.641 17.1005 16.6681 17.3042 17.5812C17.4765 18.3535 17.7471 18.7602 18.0066 18.9541C18.2365 19.1259 18.5886 19.2277 19.1929 19.0772C19.8797 18.9062 20.6924 17.9899 20.6924 16.0189C20.6924 15.2982 20.8188 14.2028 21.2304 13.2537C21.6408 12.3074 22.4516 11.2858 23.8814 11.2858C25.0741 11.2858 25.6065 11.1711 25.8559 11.0097C25.9797 10.9295 26.15 10.7687 26.15 10C26.15 9.53058 26.5306 9.15002 27 9.15002Z" fill="white"/>
<path d="M48 36.8298L40.8511 43.6809L34 36.8298V19.5532L40.8511 13L48 19.5532V36.8298Z" fill="#3B9281"/>
<path fill-rule="evenodd" clip-rule="evenodd" d="M40.2634 12.3858C40.587 12.0763 41.0952 12.0709 41.4253 12.3734L48.5743 18.9266C48.7499 19.0876 48.8499 19.315 48.8499 19.5532V36.8298C48.8499 37.0615 48.7553 37.2832 48.588 37.4435L41.4391 44.2946C41.1052 44.6145 40.5769 44.6089 40.2499 44.2819L33.3989 37.4309C33.2395 37.2714 33.1499 37.0552 33.1499 36.8298V19.5532C33.1499 19.3212 33.2447 19.0993 33.4124 18.939L40.2634 12.3858ZM40.8633 14.1644L34.8499 19.9164V36.4777L40.8636 42.4914L47.1499 36.4671V19.9271L40.8633 14.1644Z" fill="white"/>
<path fill-rule="evenodd" clip-rule="evenodd" d="M37.2712 15.2288C37.6031 14.8969 38.1413 14.8969 38.4733 15.2288L40.851 17.6065L43.2286 15.2288C43.5606 14.8969 44.0988 14.8969 44.4307 15.2288C44.7627 15.5608 44.7627 16.099 44.4307 16.4309L41.452 19.4096C41.1201 19.7416 40.5819 19.7416 40.2499 19.4096L37.2712 16.4309C36.9393 16.099 36.9393 15.5608 37.2712 15.2288ZM48.0052 18.3565C48.3371 18.6884 48.3371 19.2266 48.0052 19.5586L41.452 26.1118C41.1201 26.4437 40.5819 26.4437 40.2499 26.1118L33.8457 19.7075C33.5137 19.3755 33.5137 18.8374 33.8457 18.5054C34.1776 18.1735 34.7158 18.1735 35.0478 18.5054L40.851 24.3086L46.8031 18.3565C47.1351 18.0245 47.6733 18.0245 48.0052 18.3565ZM48.6009 24.4629C48.9329 24.7948 48.9329 25.333 48.6009 25.6649L41.452 32.8139C41.1201 33.1458 40.5819 33.1458 40.2499 32.8139L33.3989 25.9628C33.0669 25.6309 33.0669 25.0927 33.3989 24.7607C33.7308 24.4288 34.269 24.4288 34.6009 24.7607L40.851 31.0108L47.3989 24.4629C47.7308 24.1309 48.269 24.1309 48.6009 24.4629ZM48.6009 30.8671C48.9329 31.1991 48.9329 31.7373 48.6009 32.0692L41.452 39.2181C41.2926 39.3775 41.0764 39.4671 40.851 39.4671C40.6255 39.4671 40.4093 39.3775 40.2499 39.2181L33.3989 32.3671C33.0669 32.0351 33.0669 31.4969 33.3989 31.165C33.7308 30.833 34.269 30.833 34.6009 31.165L40.851 37.415L47.3989 30.8671C47.7308 30.5352 48.269 30.5352 48.6009 30.8671Z" fill="white"/>
<path fill-rule="evenodd" clip-rule="evenodd" d="M40.851 12.2991C41.3204 12.2991 41.701 12.6796 41.701 13.1491V43.5321C41.701 44.0015 41.3204 44.382 40.851 44.382C40.3815 44.382 40.001 44.0015 40.001 43.5321V13.1491C40.001 12.6796 40.3815 12.2991 40.851 12.2991Z" fill="white"/>
</svg>

<svg width="50" height="50" fill="none" xmlns="http://www.w3.org/2000/svg"><path fill-rule="evenodd" clip-rule="evenodd" d="M44.526 17.426c-.603-.444-1.557-.603-2.3-.572H30.845c-2.499.816-3.322 2.506-4.227 4.364-.119.243-.238.489-.364.736-.454.899-.443 1.404-.354 1.744.084.318.236.555.462.906.083.128.175.272.278.442.094.155.308.397.664.745.2.195.406.389.628.596.174.163.356.334.552.521.424.406.869.85 1.252 1.31.378.453.733.962.938 1.502.632 1.666 1.435 3.632 2.205 4.774.213.316.788.656 1.644.656.817 0 1.803-.322 2.69-1.198.454-.448 1.078-1.273 1.8-2.376a58.115 58.115 0 002.252-3.792c1.528-2.79 2.963-5.832 3.67-7.929.255-.754.251-1.273.158-1.624a1.43 1.43 0 00-.566-.805zm2.208.368c.202.757.14 1.628-.189 2.605-.754 2.232-2.241 5.374-3.79 8.202a59.72 59.72 0 01-2.32 3.906c-.734 1.12-1.44 2.073-2.029 2.655-1.2 1.185-2.614 1.688-3.884 1.688-1.232 0-2.431-.484-3.053-1.405-.9-1.333-1.766-3.489-2.386-5.121-.108-.285-.327-.626-.653-1.017a14.885 14.885 0 00-1.122-1.17c-.164-.157-.339-.32-.513-.484-.24-.225-.479-.449-.681-.647-.35-.342-.71-.718-.928-1.078a10.653 10.653 0 00-.166-.26c-.256-.395-.604-.931-.764-1.536-.223-.845-.108-1.783.48-2.946.111-.218.221-.448.336-.685.909-1.893 2.056-4.28 5.39-5.309a.849.849 0 01.25-.038h11.463c.927-.035 2.32.139 3.359.902.544.401.996.97 1.2 1.738zm-29.129 7.358c.994-.033 1.901.361 2.566.84.563.406 1.832 1.341 2.883 2.34.52.495 1.028 1.045 1.364 1.583.294.47.663 1.263.246 2.015-.093.17-.18.323-.26.464-.526.933-.75 1.33-.75 2.146 0 .607-.297 1.088-.713 1.422-.391.313-.896.51-1.416.638-1.046.257-2.433.302-3.922.198-1.38-.095-2.292-.662-2.758-1.503-.411-.74-.394-1.549-.262-2.1 0-.01 0-.025-.002-.041a1.377 1.377 0 00-.031-.182 3.297 3.297 0 00-.184-.54 4.992 4.992 0 00-.711-1.177 2.084 2.084 0 01-.485-1.042c-.058-.398.015-.778.145-1.131.245-.663.773-1.417 1.428-2.302.811-1.097 1.827-1.594 2.862-1.628zm.057 1.699c-.474.016-1.023.225-1.553.94-.687.93-1.053 1.486-1.2 1.88-.064.176-.062.262-.057.299.005.03.02.09.11.198.393.472.732 1.048.966 1.594.218.508.41 1.138.341 1.676a.837.837 0 01-.024.12c-.07.256-.072.627.086.912.126.227.444.567 1.39.633 1.416.098 2.6.042 3.398-.154.402-.099.639-.218.758-.313a.278.278 0 00.074-.078c0-.002.002-.005.002-.018 0-1.287.453-2.079.983-3.008l.208-.366a1.209 1.209 0 00-.167-.35c-.223-.357-.609-.79-1.095-1.252-.961-.915-2.15-1.793-2.706-2.193-.453-.327-.998-.537-1.514-.52zM6.778 20.98c-.95-.18-2-.146-2.664-.057a.85.85 0 01-.228-1.684c.796-.108 2.036-.152 3.21.07 1.127.215 2.474.733 3.053 1.994.494 1.075.96 2.1 1.275 3.008.308.887.52 1.798.383 2.612-.084.499-.372.966-.634 1.334a18.21 18.21 0 01-.745.95l-.169.205c-.31.382-.58.728-.773 1.05-.2.332-.255.54-.255.655 0 .077.014.121.097.207.093.097.194.169.354.283l.25.182c.27.2.636.496.879.951.258.484.326 1.048.195 1.699-.202.999-.913 2.086-1.603 2.967a20.038 20.038 0 01-2.039 2.218.85.85 0 01-1.153-1.248 18.342 18.342 0 001.854-2.019c.674-.86 1.158-1.678 1.275-2.255.067-.334.012-.485-.03-.562-.056-.106-.162-.216-.39-.386a8.58 8.58 0 00-.128-.091 5.092 5.092 0 01-.687-.558 1.943 1.943 0 01-.574-1.388c0-.575.242-1.105.497-1.53.262-.437.602-.867.913-1.249l.19-.231c.25-.304.472-.576.657-.836.243-.34.328-.539.343-.63.062-.37-.024-.937-.313-1.774-.283-.816-.712-1.762-1.214-2.855-.218-.474-.828-.842-1.826-1.032z" fill="#fff"/><path fill-rule="evenodd" clip-rule="evenodd" d="M45 10.7H5a.3.3 0 00-.3.3v27a.3.3 0 00.3.3h40a.3.3 0 00.3-.3V11a.3.3 0 00-.3-.3zM5 9a2 2 0 00-2 2v27a2 2 0 002 2h40a2 2 0 002-2V11a2 2 0 00-2-2H5z" fill="#fff"/><path fill-rule="evenodd" clip-rule="evenodd" d="M27 9.15c.47 0 .85.38.85.85 0 .979-.22 1.886-1.07 2.437-.725.47-1.752.549-2.899.549-.441 0-.8.272-1.091.944-.29.67-.398 1.515-.398 2.089 0 2.3-.98 4.258-2.788 4.708-.955.238-1.87.145-2.615-.411-.715-.534-1.127-1.39-1.344-2.365-.186-.834-.453-1.651-.845-2.288-.385-.626-.85-1.015-1.433-1.144-.19-.042-.288-.007-.398.07-.161.114-.33.317-.58.663l-.103.147c-.204.289-.46.649-.755.955-.364.379-.846.738-1.5.883-1.288.285-2.556.02-3.646-.392-1.09-.414-2.081-1.007-2.826-1.458a.85.85 0 11.882-1.454c.75.455 1.619.97 2.547 1.322.928.352 1.837.508 2.676.322.223-.05.424-.175.643-.403.199-.205.368-.443.574-.734l.127-.178c.24-.334.557-.762.98-1.061a2.126 2.126 0 011.747-.342c1.17.26 1.973 1.035 2.513 1.914.535.868.852 1.895 1.056 2.808.173.773.443 1.18.703 1.373.23.172.582.274 1.186.123.687-.17 1.5-1.087 1.5-3.058 0-.72.126-1.816.537-2.765.41-.947 1.222-1.968 2.651-1.968 1.193 0 1.726-.115 1.975-.276.124-.08.294-.241.294-1.01 0-.47.38-.85.85-.85z" fill="#fff"/><path d="M48 36.83l-7.149 6.85L34 36.83V19.553L40.851 13 48 19.553V36.83z" fill="#3B9281"/><path fill-rule="evenodd" clip-rule="evenodd" d="M40.263 12.386a.85.85 0 011.162-.013l7.15 6.554a.85.85 0 01.275.626V36.83a.85.85 0 01-.262.614l-7.149 6.85a.85.85 0 01-1.19-.012L33.4 37.43a.85.85 0 01-.25-.601V19.553a.85.85 0 01.263-.614l6.851-6.553zm.6 1.778l-6.013 5.752v16.562l6.014 6.013 6.286-6.024v-16.54l-6.287-5.763z" fill="#fff"/><path fill-rule="evenodd" clip-rule="evenodd" d="M37.271 15.229a.85.85 0 011.202 0l2.378 2.378 2.378-2.378a.85.85 0 011.202 1.202l-2.979 2.979a.85.85 0 01-1.202 0l-2.979-2.98a.85.85 0 010-1.201zm10.734 3.128a.85.85 0 010 1.202l-6.553 6.553a.85.85 0 01-1.202 0l-6.404-6.404a.85.85 0 111.202-1.203l5.803 5.804 5.952-5.953a.85.85 0 011.202 0zm.596 6.106a.85.85 0 010 1.202l-7.149 7.149a.85.85 0 01-1.202 0l-6.851-6.851A.85.85 0 1134.6 24.76l6.25 6.25 6.548-6.548a.85.85 0 011.202 0zm0 6.404a.85.85 0 010 1.202l-7.149 7.15a.85.85 0 01-1.202 0l-6.851-6.852a.85.85 0 111.202-1.202l6.25 6.25 6.548-6.548a.85.85 0 011.202 0z" fill="#fff"/><path fill-rule="evenodd" clip-rule="evenodd" d="M40.851 12.3c.47 0 .85.38.85.85v30.382a.85.85 0 01-1.7 0V13.15c0-.47.38-.85.85-.85z" fill="#fff"/></svg>
